WorldWind/resources/milstd2525/tacgrp/g-gpgpuy------x.svg

<?xml version="1.0" encoding="UTF-8" standalone="no"?>
<!-- SVG content generated using Symbology Configuration Management System (SCMS) -->

<!-- Systematic Software Engineering Ltd. - www.systematic.co.uk - do not remove  -->

<svg
    xmlns:dc="http://purl.org/dc/elements/1.1/"
    xmlns:cc="http://creativecommons.org/ns#"
    xmlns:rdf="http://www.w3.org/1999/02/22-rdf-syntax-ns#"
    xmlns:svg="http://www.w3.org/2000/svg"
    xmlns="http://www.w3.org/2000/svg"
    xmlns:sodipodi="http://sodipodi.sourceforge.net/DTD/sodipodi-0.dtd"
    xmlns:inkscape="http://www.inkscape.org/namespaces/inkscape"
    id="G*GPGPUY--****X"
    width="174.75"
    height="339.75"
    viewBox="0 0 174.75 339.75"
    version="1.1"
    inkscape:version="0.48.2 r9819"
    sodipodi:docname="g-gpgpuy------x.svg">
    <metadata
        id="metadata14">
        <rdf:RDF>
            <cc:Work
                rdf:about="">
                <dc:format>image/svg+xml</dc:format>
                <dc:type
                    rdf:resource="http://purl.org/dc/dcmitype/StillImage"/>
            </cc:Work>
        </rdf:RDF>
    </metadata>
    <defs
        id="defs12"/>
    <sodipodi:namedview
        pagecolor="#ffffff"
        bordercolor="#666666"
        borderopacity="1"
        objecttolerance="10"
        gridtolerance="10"
        guidetolerance="10"
        inkscape:pageopacity="0"
        inkscape:pageshadow="2"
        inkscape:window-width="640"
        inkscape:window-height="480"
        id="namedview10"
        showgrid="false"
        inkscape:zoom="0.59"
        inkscape:cx="90"
        inkscape:cy="169.75"
        inkscape:window-x="0"
        inkscape:window-y="0"
        inkscape:window-maximized="0"
        inkscape:current-layer="g6"/>
    <g
        id="g3"
        transform="translate(-110,-30)">
        <svg
            viewBox="0 0 400 400"
            id="_0.G-G-GPUY------X"
            width="400"
            height="400"
            version="1.1"
            inkscape:version="0.48.2 r9819">
            <g
                transform="matrix(6,0,0,6,110,30)"
                id="g6">
                <path
                    d="m 29.125,42.029 c 0,4.125 -1.398,7.588 -4.195,10.393 -2.797,2.801 -6.254,4.203 -10.367,4.203 -4.074,0 -7.521,-1.412 -10.338,-4.234 C 1.408,49.566 0,46.113 0,42.029 c 0,-4.123 1.398,-7.596 4.195,-10.42 2.797,-2.822 6.254,-4.234 10.367,-4.234 4.074,0 7.521,1.422 10.338,4.266 2.817,2.844 4.225,6.306 4.225,10.388 z m -1.125,0 c 0,-3.809 -1.291,-7.016 -3.869,-9.621 -2.58,-2.605 -5.77,-3.908 -9.568,-3.908 -3.798,0 -6.988,1.303 -9.568,3.908 -2.578,2.605 -3.869,5.813 -3.869,9.621 0,3.77 1.301,6.957 3.898,9.563 2.602,2.605 5.781,3.908 9.539,3.908 3.758,0 6.938,-1.303 9.537,-3.908 2.599,-2.605 3.9,-5.793 3.9,-9.563 z M 17.875,0 l 0,17.77 -4.016,-5.039 0.061,14.586 1.205,0.059 0,-10.927 4.074,4.621 0,-21.07 z"
                    id="path8"
                    style="fill:#ffffff"
                    inkscape:connector-curvature="0"/>
            </g>
        </svg>
    </g>
</svg>

<?xml version="1.0" encoding="UTF-8" standalone="no"?>
<!-- SVG content generated using Symbology Configuration Management System (SCMS) -->

<!-- Systematic Software Engineering Ltd. - www.systematic.co.uk - do not remove  -->

<svg
   xmlns:dc="http://purl.org/dc/elements/1.1/"
   xmlns:cc="http://creativecommons.org/ns#"
   xmlns:rdf="http://www.w3.org/1999/02/22-rdf-syntax-ns#"
   xmlns:svg="http://www.w3.org/2000/svg"
   xmlns="http://www.w3.org/2000/svg"
   xmlns:sodipodi="http://sodipodi.sourceforge.net/DTD/sodipodi-0.dtd"
   xmlns:inkscape="http://www.inkscape.org/namespaces/inkscape"
   id="G*GPGPUY--****X"
   width="400px"
   height="400px"
   viewBox="0 0 400 400"
   version="1.1"
   inkscape:version="0.48.2 r9819"
   sodipodi:docname="g-gpgpuy------x.svg">
  <metadata
     id="metadata14">
    <rdf:RDF>
      <cc:Work
         rdf:about="">
        <dc:format>image/svg+xml</dc:format>
        <dc:type
           rdf:resource="http://purl.org/dc/dcmitype/StillImage" />
      </cc:Work>
    </rdf:RDF>
  </metadata>
  <defs
     id="defs12" />
  <sodipodi:namedview
     pagecolor="#ffffff"
     bordercolor="#666666"
     borderopacity="1"
     objecttolerance="10"
     gridtolerance="10"
     guidetolerance="10"
     inkscape:pageopacity="0"
     inkscape:pageshadow="2"
     inkscape:window-width="640"
     inkscape:window-height="480"
     id="namedview10"
     showgrid="false"
     inkscape:zoom="0.59"
     inkscape:cx="200"
     inkscape:cy="200"
     inkscape:window-x="0"
     inkscape:window-y="0"
     inkscape:window-maximized="0"
     inkscape:current-layer="g6" />
  <g
     id="g3">
    <svg
       viewBox="0 0 400 400"
       id="_0.G-G-GPUY------X"
       width="400px"
       height="400px"
       version="1.1">
      <g
         transform="translate(110 30) scale(6 6)"
         id="g6">
        <path
           d="M29.125 42.029 C29.125 46.154 27.727 49.617 24.93 52.422 C22.133 55.223 18.676 56.625     14.563 56.625 C10.489 56.625 7.042 55.213 4.225 52.391 C1.408 49.566 0     46.113 0 42.029 C0 37.906 1.398 34.433 4.195 31.609 C6.992 28.787 10.449 27.375     14.562 27.375 C18.636 27.375 22.083 28.797 24.9 31.641 C27.717 34.485 29.125     37.947 29.125 42.029 zM28 42.029 C28 38.22 26.709 35.013 24.131 32.408     C21.551 29.803 18.361 28.5 14.563 28.5 C10.765 28.5 7.575 29.803 4.995 32.408     C2.417 35.013 1.126 38.221 1.126 42.029 C1.126 45.799 2.427 48.986 5.024 51.592     C7.626 54.197 10.805 55.5 14.563 55.5 C18.321 55.5 21.501 54.197 24.1     51.592 C26.699 48.987 28 45.799 28 42.029 zM17.875 0 L17.875 17.77 L13.859 12.731     L13.92 27.317 L15.125 27.376 L15.125 16.449 L19.199 21.07 L19.199 0 z"
           id="path8"
           style="fill:#ffffff" />
      </g>
    </svg>
  </g>
</svg>
